assets/illustrations/multisize/32/link.svg

<svg id="c18caf24-235b-4497-9cd5-a5ee86d824ec" data-name="ICONS" xmlns="http://www.w3.org/2000/svg" xmlns:xlink="http://www.w3.org/1999/xlink" viewBox="0 0 32 32"><defs><linearGradient id="7ff76a21-258d-40c2-b7af-1cddbbb28014" x1="5.2915" y1="3.2381" x2="26.7085" y2="28.7619" gradientUnits="userSpaceOnUse"><stop offset="0" stop-color="#fff" stop-opacity="0"/><stop offset="0.86247" stop-color="#5e5e5e" stop-opacity="0.06315"/><stop offset="1" stop-opacity="0.1"/></linearGradient><linearGradient id="c9dedabb-9f64-4357-b201-8ca03156f3b7" x1="13" y1="19" x2="28" y2="4" gradientUnits="userSpaceOnUse"><stop offset="0" stop-color="#fff" stop-opacity="0"/><stop offset="0.44604" stop-color="#fff" stop-opacity="0.00799"/><stop offset="0.63551" stop-color="#fff" stop-opacity="0.03616"/><stop offset="0.77636" stop-color="#fff" stop-opacity="0.08493"/><stop offset="0.8924" stop-color="#fff" stop-opacity="0.15385"/><stop offset="0.99328" stop-color="#fff" stop-opacity="0.24291"/><stop offset="1" stop-color="#fff" stop-opacity="0.25"/></linearGradient></defs><title>FileTypeIcons_Master_All_NEW</title><rect x="2" y="6" width="28" height="20" fill="#fff"/><path d="M2,6V26H30V6ZM29,25H3V7H29Z" fill="#949494"/><rect x="6" y="7" width="1" height="1" fill="#949494"/><rect x="4" y="7" width="1" height="1" fill="#949494"/><rect x="8" y="7" width="21" height="1" fill="#949494"/><path d="M16,11a6,6,0,1,0,6,6A6.00014,6.00014,0,0,0,16,11Zm3.97461,3h-1.3794a6.87121,6.87121,0,0,0-.67871-1.61523A5.01386,5.01386,0,0,1,19.97461,14ZM18,17a10.44273,10.44273,0,0,1-.18751,2h-3.625a10.761,10.761,0,0,1,0-4h3.625A10.44273,10.44273,0,0,1,18,17Zm-2,5c-.499,0-1.1333-.73535-1.55273-2h3.10546C17.1333,21.26465,16.499,22,16,22Zm-1.55273-8C14.8667,12.73535,15.501,12,16,12s1.1333.73535,1.55273,2Zm-.36377-1.61523A6.87121,6.87121,0,0,0,13.40479,14h-1.3794A5.01386,5.01386,0,0,1,14.0835,12.38477ZM11.42383,15h1.75049a11.56031,11.56031,0,0,0,0,4H11.42383a4.93079,4.93079,0,0,1,0-4Zm.60156,5h1.3794a6.87121,6.87121,0,0,0,.67871,1.61523A5.01386,5.01386,0,0,1,12.02539,20Zm5.89111,1.61523A6.87121,6.87121,0,0,0,18.59521,20h1.3794A5.01386,5.01386,0,0,1,17.9165,21.61523ZM20.57617,19H18.82568a11.56031,11.56031,0,0,0,0-4h1.75049a4.93079,4.93079,0,0,1,0,4Z" fill="#a6a6a6"/><rect x="2" y="6" width="28" height="20" fill="url(#7ff76a21-258d-40c2-b7af-1cddbbb28014)"/><polygon points="30 6 2 6 2 8 3 8 29 8 29 25 29 26 30 26 30 6" fill="url(#c9dedabb-9f64-4357-b201-8ca03156f3b7)"/></svg>

<?xml version="1.0" encoding="utf-8"?>
<!-- Generator: Adobe Illustrator 21.1.0, SVG Export Plug-In . SVG Version: 6.00 Build 0)  -->
<svg version="1.1" xmlns="http://www.w3.org/2000/svg" xmlns:xlink="http://www.w3.org/1999/xlink" x="0px" y="0px"
	 viewBox="0 0 32 32" enable-background="new 0 0 32 32" xml:space="preserve">
<g id="TEMPLATE" display="none">
	<g display="inline">
		<path fill="#D0D0D0" d="M32,0v32H0V0H32 M33-1h-1H0h-1v1v32v1h1h32h1v-1V0V-1L33-1z"/>
	</g>
	<g display="inline" opacity="0.1">
		<path fill="#FF3A6D" d="M30,2v28H2V2H30 M32,0H0v32h32V0L32,0z"/>
	</g>
</g>
<g id="ICONS">
	<rect x="2" y="6" fill="#FFFFFF" width="28" height="20"/>
	<path fill="#949494" d="M2,6v20h28V6H2z M29,25H3V7h26V25z"/>
	<rect x="6" y="7" fill="#949494" width="1" height="1"/>
	<rect x="4" y="7" fill="#949494" width="1" height="1"/>
	<rect x="8" y="7" fill="#949494" width="21" height="1"/>
	<path fill="#A6A6A6" d="M16,11c-3.3135,0-6,2.6863-6,6s2.6865,6,6,6s6-2.6863,6-6S19.3135,11,16,11z M19.9746,14h-1.3794
		c-0.1782-0.615-0.4072-1.1633-0.6787-1.6152C18.7412,12.7286,19.4419,13.2966,19.9746,14z M18,17c0,0.7361-0.0713,1.4042-0.1875,2
		h-3.625C14.0713,18.4042,14,17.7361,14,17s0.0713-1.4042,0.1875-2h3.625C17.9287,15.5958,18,16.2639,18,17z M16,22
		c-0.499,0-1.1333-0.7354-1.5527-2h3.1055C17.1333,21.2646,16.499,22,16,22z M14.4473,14c0.4194-1.2646,1.0537-2,1.5527-2
		s1.1333,0.7354,1.5527,2H14.4473z M14.0835,12.3848C13.812,12.8367,13.583,13.385,13.4048,14h-1.3794
		C12.5581,13.2966,13.2588,12.7286,14.0835,12.3848z M11.4238,15h1.7505C13.0635,15.6265,13,16.2976,13,17s0.0635,1.3735,0.1743,2
		h-1.7505C11.1543,18.3865,11,17.7119,11,17S11.1543,15.6135,11.4238,15z M12.0254,20h1.3794
		c0.1782,0.615,0.4072,1.1633,0.6787,1.6152C13.2588,21.2714,12.5581,20.7034,12.0254,20z M17.9165,21.6152
		C18.188,21.1633,18.417,20.615,18.5952,20h1.3794C19.4419,20.7034,18.7412,21.2714,17.9165,21.6152z M20.5762,19h-1.7505
		C18.9365,18.3735,19,17.7024,19,17s-0.0635-1.3735-0.1743-2h1.7505C20.8457,15.6135,21,16.2881,21,17S20.8457,18.3865,20.5762,19z"
		/>
	<linearGradient id="SVGID_1_" gradientUnits="userSpaceOnUse" x1="5.2915" y1="3.2381" x2="26.7085" y2="28.7619">
		<stop  offset="0" style="stop-color:#FFFFFF;stop-opacity:0"/>
		<stop  offset="0.2264" style="stop-color:#FCFCFC;stop-opacity:0.0226"/>
		<stop  offset="0.3626" style="stop-color:#F4F4F4;stop-opacity:0.0363"/>
		<stop  offset="0.475" style="stop-color:#E6E6E6;stop-opacity:0.0475"/>
		<stop  offset="0.5744" style="stop-color:#D1D1D1;stop-opacity:0.0574"/>
		<stop  offset="0.6652" style="stop-color:#B7B7B7;stop-opacity:0.0665"/>
		<stop  offset="0.7498" style="stop-color:#979797;stop-opacity:0.075"/>
		<stop  offset="0.8297" style="stop-color:#707070;stop-opacity:0.083"/>
		<stop  offset="0.9057" style="stop-color:#444444;stop-opacity:0.0906"/>
		<stop  offset="0.9761" style="stop-color:#121212;stop-opacity:0.0976"/>
		<stop  offset="1" style="stop-color:#000000;stop-opacity:0.1"/>
	</linearGradient>
	<rect x="2" y="6" fill="url(#SVGID_1_)" width="28" height="20"/>
	<linearGradient id="SVGID_2_" gradientUnits="userSpaceOnUse" x1="13" y1="19" x2="28" y2="4">
		<stop  offset="0" style="stop-color:#FFFFFF;stop-opacity:0"/>
		<stop  offset="0.8537" style="stop-color:#FFFFFF;stop-opacity:0.2134"/>
		<stop  offset="1" style="stop-color:#FFFFFF;stop-opacity:0.25"/>
	</linearGradient>
	<polygon fill="url(#SVGID_2_)" points="30,6 2,6 2,8 3,8 29,8 29,25 29,26 30,26 	"/>
</g>
</svg>
